Numix-GalliumOS/48/devices/nm-device-wireless.svg

<?xml version="1.0" encoding="UTF-8" standalone="no"?>
<svg
   xmlns:dc="http://purl.org/dc/elements/1.1/"
   xmlns:cc="http://creativecommons.org/ns#"
   xmlns:rdf="http://www.w3.org/1999/02/22-rdf-syntax-ns#"
   xmlns:svg="http://www.w3.org/2000/svg"
   xmlns="http://www.w3.org/2000/svg"
   xmlns:sodipodi="http://sodipodi.sourceforge.net/DTD/sodipodi-0.dtd"
   xmlns:inkscape="http://www.inkscape.org/namespaces/inkscape"
   viewBox="0 0 48 48"
   width="48"
   height="48"
   enable-background="new"
   id="svg2"
   version="1.1"
   inkscape:version="0.91 r"
   sodipodi:docname="nm-device-wireless.svg">
  <metadata
     id="metadata12">
    <rdf:RDF>
      <cc:Work
         rdf:about="">
        <dc:format>image/svg+xml</dc:format>
        <dc:type
           rdf:resource="http://purl.org/dc/dcmitype/StillImage" />
        <dc:title />
      </cc:Work>
    </rdf:RDF>
  </metadata>
  <defs
     id="defs10" />
  <sodipodi:namedview
     pagecolor="#ffffff"
     bordercolor="#666666"
     borderopacity="1"
     objecttolerance="10"
     gridtolerance="10"
     guidetolerance="10"
     inkscape:pageopacity="0"
     inkscape:pageshadow="2"
     inkscape:window-width="1280"
     inkscape:window-height="998"
     id="namedview8"
     showgrid="true"
     inkscape:zoom="8.0000004"
     inkscape:cx="29.960716"
     inkscape:cy="0.5814603"
     inkscape:window-x="0"
     inkscape:window-y="0"
     inkscape:window-maximized="1"
     inkscape:current-layer="svg2"
     showguides="false">
    <inkscape:grid
       type="xygrid"
       id="grid4140" />
  </sodipodi:namedview>
  <rect
     style="opacity:1;fill:#1a1a1a;fill-opacity:1;stroke:none;stroke-width:2;stroke-linecap:square;stroke-linejoin:round;stroke-miterlimit:4;stroke-dasharray:none;stroke-dashoffset:0;stroke-opacity:0.55686275"
     id="rect4222"
     width="1"
     height="17"
     x="13"
     y="19" />
  <path
     sodipodi:nodetypes="ccccc"
     inkscape:connector-curvature="0"
     id="path3069"
     d="m 5,33 38,0 0,10 -38,0 z"
     style="fill:#999999;stroke:none" />
  <rect
     y="37"
     x="7"
     height="2"
     width="4"
     id="rect3115"
     style="fill:#1a1a1a;fill-opacity:1;stroke:none" />
  <path
     style="opacity:1;fill:#1a1a1a;fill-opacity:1;stroke:none;stroke-width:0.69999999;stroke-linecap:round;stroke-linejoin:round;stroke-miterlimit:4;stroke-dasharray:none;stroke-dashoffset:0;stroke-opacity:1"
     d="M 15.25,19 A 1.75,1.75 0 0 1 13.5,20.75 1.75,1.75 0 0 1 11.75,19 1.75,1.75 0 0 1 13.5,17.25 1.75,1.75 0 0 1 15.25,19 Z"
     id="path4210" />
  <circle
     style="opacity:1;fill:#ffeb42;fill-opacity:1;stroke:none;stroke-width:0.69999999;stroke-linecap:round;stroke-linejoin:round;stroke-miterlimit:4;stroke-dasharray:none;stroke-dashoffset:0;stroke-opacity:1"
     id="path4212"
     cx="29.512501"
     cy="38"
     r="1.3125" />
  <rect
     style="opacity:0.4;fill:#ffffff;fill-opacity:1;stroke:none;stroke-width:2;stroke-linecap:square;stroke-linejoin:miter;stroke-miterlimit:4;stroke-dasharray:none;stroke-dashoffset:0;stroke-opacity:1"
     id="rect4264"
     width="3"
     height="10"
     x="34"
     y="33" />
  <circle
     style="opacity:1;fill:#ffeb42;fill-opacity:1;stroke:none;stroke-width:0.69999999;stroke-linecap:round;stroke-linejoin:round;stroke-miterlimit:4;stroke-dasharray:none;stroke-dashoffset:0;stroke-opacity:1"
     id="path4212-5"
     cx="34.762501"
     cy="38"
     r="1.3125" />
  <circle
     style="opacity:1;fill:#ffeb42;fill-opacity:1;stroke:none;stroke-width:0.69999999;stroke-linecap:round;stroke-linejoin:round;stroke-miterlimit:4;stroke-dasharray:none;stroke-dashoffset:0;stroke-opacity:1"
     id="path4212-5-2"
     cx="40.012501"
     cy="38"
     r="1.3125" />
  <path
     style="color:#000000;font-style:normal;font-variant:normal;font-weight:normal;font-stretch:normal;font-size:medium;line-height:normal;font-family:sans-serif;text-indent:0;text-align:start;text-decoration:none;text-decoration-line:none;text-decoration-style:solid;text-decoration-color:#000000;letter-spacing:normal;word-spacing:normal;text-transform:none;direction:ltr;block-progression:tb;writing-mode:lr-tb;baseline-shift:baseline;text-anchor:start;white-space:normal;clip-rule:nonzero;display:inline;overflow:visible;visibility:visible;opacity:1;isolation:auto;mix-blend-mode:normal;color-interpolation:sRGB;color-interpolation-filters:linearRGB;solid-color:#000000;solid-opacity:1;fill:#a6e3ff;fill-opacity:0.55686275;fill-rule:nonzero;stroke:none;stroke-width:1.99999988;stroke-linecap:square;stroke-linejoin:miter;stroke-miterlimit:4;stroke-dasharray:none;stroke-dashoffset:0;stroke-opacity:1;color-rendering:auto;image-rendering:auto;shape-rendering:auto;text-rendering:auto;enable-background:accumulate"
     d="m 29.076172,8.1464844 -1.628906,1.140625 C 29.366585,12.040321 30.5,15.383444 30.5,19 c 0,3.617841 -1.150281,6.947393 -3.074219,9.697266 l 1.634766,1.144531 C 31.215408,26.765049 32.5,23.037091 32.5,19 32.5,14.963779 31.22817,11.226183 29.076172,8.1464844 Z m -3.275391,2.2929686 -1.628906,1.138672 C 25.636273,13.682099 26.5,16.236389 26.5,19 c 0,2.764344 -0.86803,5.314597 -2.333984,7.416016 l 1.632812,1.142578 C 27.49783,25.131123 28.5,22.183142 28.5,19 c 0,-3.182574 -1.002839,-6.130398 -2.699219,-8.560547 z M 4.4746094,12.732422 C 3.2336921,14.513084 2.5,16.670913 2.5,19 c 0,2.3296 0.7342426,4.487333 1.9765625,6.265625 L 6.0996094,24.130859 C 5.0905333,22.677036 4.5,20.909836 4.5,19 c 0,-1.909595 0.5931126,-3.674633 1.6015625,-5.128906 z m 18.0507816,0 -1.626953,1.138672 C 21.906887,15.325367 22.5,17.090405 22.5,19 c 0,1.909836 -0.590533,3.677036 -1.599609,5.130859 l 1.623047,1.134766 C 23.765757,23.487333 24.5,21.3296 24.5,19 c 0,-2.329087 -0.733692,-4.486916 -1.974609,-6.267578 z M 7.75,15.025391 C 6.9648959,16.156389 6.5,17.524759 6.5,19 c 0,1.475766 0.479538,2.833381 1.265625,3.962891 l 1.6171875,-1.13086 C 8.8270589,21.030185 8.5,20.057207 8.5,19 c 0,-1.055552 0.3263828,-2.02943 0.8789062,-2.833984 z m 11.5,0 -1.628906,1.140625 C 18.173617,16.97057 18.5,17.944448 18.5,19 c 0,1.057207 -0.327059,2.030185 -0.882812,2.832031 l 1.617187,1.13086 C 20.020462,21.833381 20.5,20.475766 20.5,19 c 0,-1.475241 -0.464896,-2.843611 -1.25,-3.974609 z"
     id="path4217-9"
     inkscape:connector-curvature="0"
     sodipodi:nodetypes="ccsccscccsccsccsccsccccsccsccsccsccccsccsc" />
  <path
     style="color:#000000;font-style:normal;font-variant:normal;font-weight:normal;font-stretch:normal;font-size:medium;line-height:normal;font-family:sans-serif;text-indent:0;text-align:start;text-decoration:none;text-decoration-line:none;text-decoration-style:solid;text-decoration-color:#000000;letter-spacing:normal;word-spacing:normal;text-transform:none;direction:ltr;block-progression:tb;writing-mode:lr-tb;baseline-shift:baseline;text-anchor:start;white-space:normal;clip-rule:nonzero;display:inline;overflow:visible;visibility:visible;opacity:1;isolation:auto;mix-blend-mode:normal;color-interpolation:sRGB;color-interpolation-filters:linearRGB;solid-color:#000000;solid-opacity:1;fill:#a6e3ff;fill-opacity:0.55686277;fill-rule:nonzero;stroke:none;stroke-width:2;stroke-linecap:square;stroke-linejoin:miter;stroke-miterlimit:4;stroke-dasharray:none;stroke-dashoffset:0;stroke-opacity:1;color-rendering:auto;image-rendering:auto;shape-rendering:auto;text-rendering:auto;enable-background:accumulate"
     d="M 32.357422 5.8496094 L 30.722656 6.9941406 C 33.097509 10.396858 34.5 14.529875 34.5 19 C 34.5 23.470125 33.097509 27.603142 30.722656 31.005859 L 32.357422 32.150391 C 34.964705 28.421295 36.5 23.889527 36.5 19 C 36.5 14.110473 34.964705 9.5787053 32.357422 5.8496094 z "
     id="path4202" />
</svg>

<svg xmlns="http://www.w3.org/2000/svg" viewBox="0 0 48 48" style="enable-background:new">
 <rect width="1" height="17" x="13" y="19" style="fill:#1a1a1a;opacity:1;fill-opacity:1;stroke:none"/>
 <path d="m 5 33 38 0 0 10 -38 0 z" style="fill:#999;stroke:none"/>
 <rect y="37" x="7" height="2" width="4" style="fill:#1a1a1a;fill-opacity:1;stroke:none"/>
 <path d="M 15.25 19 A 1.75 1.75 0 0 1 13.5 20.75 1.75 1.75 0 0 1 11.75 19 1.75 1.75 0 0 1 13.5 17.25 1.75 1.75 0 0 1 15.25 19" style="fill:#1a1a1a;opacity:1;fill-opacity:1;stroke:none"/>
 <circle cx="29.513" cy="38" r="1.313" style="fill:#ffeb42;opacity:1;fill-opacity:1;stroke:none"/>
 <rect width="3" height="10" x="34" y="33" style="fill:#fff;opacity:0.4;fill-opacity:1;stroke:none"/>
 <circle cx="34.763" cy="38" r="1.313" style="fill:#ffeb42;opacity:1;fill-opacity:1;stroke:none"/>
 <circle cx="40.01" cy="38" r="1.313" style="fill:#ffeb42;opacity:1;fill-opacity:1;stroke:none"/>
 <path d="m 29.08 8.146 -1.629 1.141 c 1.919 2.753 3.053 6.096 3.053 9.713 c 0 3.618 -1.15 6.947 -3.074 9.697 l 1.635 1.145 c 2.155 -3.077 3.439 -6.805 3.439 -10.842 0 -4.04 -1.272 -7.774 -3.424 -10.854 m -3.275 2.293 -1.629 1.139 c 1.464 2.104 2.328 4.658 2.328 7.422 c 0 2.764 -0.868 5.315 -2.334 7.416 l 1.633 1.143 c 1.699 -2.427 2.701 -5.375 2.701 -8.559 c 0 -3.183 -1 -6.13 -2.699 -8.561 z m -21.326 2.293 c -1.241 1.781 -1.975 3.938 -1.975 6.268 c 0 2.33 0.734 4.487 1.977 6.266 l 1.623 -1.135 c -1.01 -1.454 -1.6 -3.221 -1.6 -5.131 c 0 -1.91 0.593 -3.675 1.602 -5.129 z m 18.05 0 -1.627 1.139 c 1.01 1.454 1.602 3.219 1.602 5.129 c 0 1.91 -0.591 3.677 -1.6 5.131 l 1.623 1.135 c 1.242 -1.778 1.977 -3.936 1.977 -6.266 c 0 -2.329 -0.734 -4.487 -1.975 -6.268 z m -14.775 2.293 c -0.785 1.131 -1.25 2.499 -1.25 3.975 c 0 1.476 0.48 2.833 1.266 3.963 l 1.617 -1.131 c -0.556 -0.802 -0.883 -1.775 -0.883 -2.832 c 0 -1.056 0.326 -2.029 0.879 -2.834 z m 11.5 0 -1.629 1.141 c 0.553 0.805 0.879 1.778 0.879 2.834 c 0 1.057 -0.327 2.03 -0.883 2.832 l 1.617 1.131 c 0.786 -1.13 1.266 -2.487 1.266 -3.963 c 0 -1.475 -0.465 -2.844 -1.25 -3.975 z" mix-blend-mode="normal" isolation="auto" white-space="normal" solid-opacity="1" solid-color="#000000" style="visibility:visible;shape-rendering:auto;color-interpolation-filters:linearRGB;fill:#a6e3ff;opacity:1;image-rendering:auto;fill-opacity:0.557;stroke:none;display:inline;color:#000;fill-rule:nonzero;color-rendering:auto;color-interpolation:sRGB"/>
 <path d="m 32.357 5.85 l -1.635 1.145 c 2.375 3.403 3.777 7.536 3.777 12.01 c 0 4.47 -1.402 8.603 -3.777 12.01 l 1.635 1.145 c 2.607 -3.729 4.143 -8.261 4.143 -13.15 c 0 -4.89 -1.535 -9.421 -4.143 -13.15 z" mix-blend-mode="normal" isolation="auto" white-space="normal" solid-opacity="1" solid-color="#000000" style="visibility:visible;shape-rendering:auto;color-interpolation-filters:linearRGB;fill:#a6e3ff;opacity:1;image-rendering:auto;fill-opacity:0.557;stroke:none;display:inline;color:#000;fill-rule:nonzero;color-rendering:auto;color-interpolation:sRGB"/>
</svg>
